src/pos-icons/redo.svg

<svg height="24" viewBox="0 0 24 24" width="24" xmlns="http://www.w3.org/2000/svg"><path d="m18.4 10.6c-1.85-1.6-4.25-2.6-6.9-2.6-4.65 0-8.58 3.03-9.96 7.22l2.36.78c1.05-3.19 4.05-5.5 7.6-5.5 1.95 0 3.73.72 5.12 1.88l-3.62 3.62h9v-9z"/></svg>

<?xml version="1.0" encoding="UTF-8"?><!DOCTYPE svg PUBLIC "-//W3C//DTD SVG 1.1//EN" "http://www.w3.org/Graphics/SVG/1.1/DTD/svg11.dtd"><svg xmlns="http://www.w3.org/2000/svg" xmlns:xlink="http://www.w3.org/1999/xlink" version="1.1" id="mdi-redo" width="24" height="24" viewBox="0 0 24 24"><path d="M18.4,10.6C16.55,9 14.15,8 11.5,8C6.85,8 2.92,11.03 1.54,15.22L3.9,16C4.95,12.81 7.95,10.5 11.5,10.5C13.45,10.5 15.23,11.22 16.62,12.38L13,16H22V7L18.4,10.6Z" /></svg>
